X:1
T:Title
%%score { ( 1 2 3 7 ) | ( 4 5 6 8 ) }
L:1/8
Q:1/4=100
M:4/4
K:C
V:1 treble nm="Grand Piano"
V:2 treble 
V:3 treble 
V:7 treble 
V:4 bass 
V:5 bass 
V:6 bass 
V:8 bass 
V:1
 [Ac]4 z4 | [_Bd]4 [Ac]4 | [G_B]4 z4 | [FA]6[K:bass] z2 | [Ac]4 z4 | [_Bd]4 z4 | [ce]4 z4 | %7
w: H.~W.~Porter|||||||
[M:3/4] A6 |[M:1/4] c>^c |[M:4/4] d4 z4 | d4 z4 | c2 A2 G2 F2 | E6 z2 | z2 C2 E2 F>G | A4 z4 | %15
w: ||||||||
 G2 [CEc]2 [^FA]2 [D=FB]2 | [Ec]6 z2 | d4 z4 | d4 z4 | c2 z2 z4 | z2 _B,2 B,2 G>A | %21
w: ||||||
 _B2 .[Ff]2 [^Ge]2 [Gd]2 | [Ad]2 c2 A2 F2 | z2 z/ c'3/2 z2 z/ g3/2 | z2 z/ c'3/2 z/ c'3/2 z2 |] %25
w: ||||
V:2
 z2 z [Ac] [Ac][Ac][FA][G_B] | z2 [_B,D]2 z2 [A,C]2 | z2 z [G_B] [GB][EG][Ac][GB] | %3
 z2[K:bass] [F,A,]2 C2 [F,A,]2 | z2 z [Ac] [Ac][Ac][FA][G_B] | z2 [_B,D]2 [Ac]2 [Ac]>[=Bd] | %6
 z2 z d [Ac]2 [D^GB]2 |[M:3/4] z2 C2 C2 |[M:1/4] x2 |[M:4/4] z2 E2 c2 c>B | z2 F2 c2 A>_B | x8 | %12
 z2 C2 C2 C>^C | D4 z4 | z2 C2 c2 B>A | x8 | z2 C2 C2 c>^c | z2 E2 c2 c>B | z2 F2 c2 c>c | %19
 _E2- [E-c]2 [E-_B]2 [EA]2 | D6 z2 | x8 | x8 | z2 z/4 f3/4-f z2 z/4 e3/4-e | %24
 (7:8:7z/ z/ z/ z/4 f/4-[fa]/-[faf'] f2 z2 |] %25
V:3
 z2 [F,A,]2 z4 | x8 | z2 [G,C]2 z4 | x2[K:bass] x6 | z2 [F,A,]2 z4 | x8 | z2 [A,C]2 z4 | %7
[M:3/4] x6 |[M:1/4] x2 |[M:4/4] x8 | x8 | x8 | x8 | x8 | x8 | x8 | x8 | x8 | x8 | x8 | x8 | x8 | %22
 x8 | z2 c2 z2 c2 | z4 z/4 a3/4-a z2 |] %25
V:4
 z2 C,2 [F,A,C]2 [C,F,A,]2 | z2 F,2 z2 F,2 | z2 E,2 [C,E,G,]2 [C,E,C]2 | z2 C,2 A,2 C,2 | %4
 z2 C,2 [F,A,C]2 [C,F,A,]2 | z2 F,2 z2 [F,A,C]2 | z2 z[K:treble] B[K:bass] z2 E,2 | %7
[M:3/4] z2 [E,A,]2 [E,A,]2 |[M:1/4] z2 |[M:4/4] z2 [G,_B,C]2 z2 [G,B,CE]2 | %10
 z2 [F,A,C]2 z2 [F,A,C]2 | z2 [F,A,C]2 z2 [F,A,C]2 | z2 [G,_B,]2 [G,B,]2 z2 | %13
 z2 [G,_B,]2 z2 [G,B,C]2 | z2 [F,A,]2 z2 [F,A,D]2 | z2 G,2 z2 G,2 | z2 G,2 G,2 z2 | %17
 z2 [G,_B,C]2 z2 [G,B,CE]2 | z2 [F,A,C]2 z2 [F,A,C]2 | z2 [F,A,C]2 z2 [F,A,C]2 | %20
 z2 [D,G,]2 [D,G,]2 [D,G,_B,]2 | z2 z G z2 [D,F,^G,]2 | z2 [F,A,]2 z2 [F,A,]2 | %23
 z2 (3:2:2z[K:treble] e'2[K:bass] z2 (3:2:2z[K:treble] c'2 | z2 [C,F,]2 (3:2:2z[K:treble] f'2 z2 |] %25
V:5
 F,,8 | F,,4 F,,4 | C,,8 | F,,8 | F,,8 | F,,4 F,,4 | z2 E,2[K:treble][K:bass] z4 |[M:3/4] A,,6 | %8
[M:1/4] x2 |[M:4/4] G,,4 C,,4 | F,,4 A,,4 | F,,4 A,,4 | G,,6 z2 | E,,4 C,,4 | F,,4 F,,4 | %15
 G,,4 G,,4 | C,6 z2 | G,,4 C,,4 | F,,4 A,,4 | A,,4 F,,4 | _B,,8 | z2 [D,F,G,]2 z4 | C,4 D,4 | %23
 z2 A,2[K:treble][K:bass] z2 E,2[K:treble] | z4 F,2[K:treble] z2 |] %25
V:6
 x8 | x8 | x8 | x8 | x8 | x8 | E,,4[K:treble][K:bass] E,,4 |[M:3/4] x6 |[M:1/4] x2 |[M:4/4] x8 | %10
 x8 | x8 | x8 | x8 | x8 | x8 | x8 | x8 | x8 | x8 | x8 | _B,,4 =B,,4 | x8 | %23
 z2 F,2[K:treble][K:bass] z2 C,2[K:treble] | z4 C,2[K:treble] z2 |] %25
V:7
 x8 | x8 | x8 | x2[K:bass] x6 | x8 | x8 | x8 |[M:3/4] x6 |[M:1/4] x2 |[M:4/4] x8 | x8 | x8 | x8 | %13
 x8 | x8 | x8 | x8 | x8 | x8 | x8 | x8 | x8 | x8 | A4 [_B,G]4 | [A,F]6 z2 |] %25
V:8
 x8 | x8 | x8 | x8 | x8 | x8 | x3[K:treble] x[K:bass] x4 |[M:3/4] x6 |[M:1/4] x2 |[M:4/4] x8 | x8 | %11
 x8 | x8 | x8 | x8 | x8 | x8 | x8 | x8 | x8 | x8 | x8 | x8 | %23
 [C,C]4[K:treble][K:bass] C,,4[K:treble] | F,,6[K:treble] z2 |] %25

